bundles/org.openhab.ui.iconset.classic/src/main/resources/icons/blinds-30.svg

<?xml version="1.0" encoding="UTF-8"?>
<svg enable-background="new 0 0 64 64" viewBox="0 0 64 64" xmlns="http://www.w3.org/2000/svg">
 <path d="m15.5 15.5h33v33h-33z" fill="#f0f0f0"/>
 <path d="m48 16v32h-32v-32h32m1-1h-34v34h34v-34z" fill="#646464"/>
 <path d="m19.5 19.5h25v25h-25z" fill="#d9f1ff"/>
 <path d="m44 20v24h-24v-24h24m1-1h-26v26h26v-26z" fill="#7aadcc"/>
 <path d="m10.5 53.5v-43h43v43h-43m4-4h35v-35h-35v35" fill="#ececed"/>
 <path d="m53 11v42h-42v-42h42m-39 39h36v-36h-36v36m40-40h-44v44h44v-44zm-39 39v-34h34v34h-34" fill="#9b9c9e"/>
 <path d="m14.5 15.5h35v10h-35z" fill="#c8c8c8"/>
 <path d="m49 16v9h-34v-9h34m1-1h-36v11h36v-11z" fill="#646464"/>
 <path d="m15 17h34v1h-34z" opacity=".25"/>
 <path d="m15 21h34v1h-34z" opacity=".25"/>
 <path d="m14 14h36v4h-36z" fill="#282828"/>
</svg>

<svg viewBox="0 0 64 64" xmlns="http://www.w3.org/2000/svg"><path d="M15.5 15.5h33v33h-33z" fill="#f0f0f0"/><path d="M48 16v32H16V16h32m1-1H15v34h34V15z" fill="#646464"/><path d="M19.5 19.5h25v25h-25z" fill="#d9f1ff"/><path d="M44 20v24H20V20h24m1-1H19v26h26V19z" fill="#7aadcc"/><path d="M10.5 53.5v-43h43v43h-43m4-4h35v-35h-35v35" fill="#ececed"/><path d="M53 11v42H11V11h42M14 50h36V14H14v36m40-40H10v44h44V10zM15 49V15h34v34H15" fill="#9b9c9e"/><path d="M14.5 15.5h35v10h-35z" fill="#c8c8c8"/><path d="M49 16v9H15v-9h34m1-1H14v11h36V15z" fill="#646464"/><path d="M15 17h34v1H15zM15 21h34v1H15z" opacity=".25"/><path d="M14 14h36v4H14z" fill="#282828"/></svg>
